symbols/web/stroller/materialsymbolsoutlined/stroller_wght300grad200_48px.svg

<svg xmlns="http://www.w3.org/2000/svg" height="48" width="48"><path d="M30.7 43.65q-1.25 0-2.15-.9-.9-.9-.9-2.15t.9-2.125q.9-.875 2.15-.875t2.125.9q.875.9.875 2.1 0 1.3-.875 2.175-.875.875-2.125.875Zm-17.75 0q-1.25 0-2.125-.9T9.95 40.6q0-1.25.875-2.125t2.125-.875q1.3 0 2.175.9.875.9.875 2.1 0 1.3-.9 2.175-.9.875-2.15.875ZM16.7 31.6h11.55q.25 0 .425-.175T28.85 31V17.35Zm-2.45 2.95q-1.15 0-1.625-1.05-.475-1.05.275-1.95L31.75 9.5q.85-1.05 2.1-1.7 1.25-.65 2.6-.65 2.35 0 4.05 1.675 1.7 1.675 1.7 4.125v1.35h-2.9v-1.35q0-1.2-.85-2.05-.85-.85-1.95-.85-.8 0-1.475.375T33.8 11.55l-2.05 2.3V31q0 1.5-1.05 2.525t-2.45 1.025ZM20.8 15.1l3.75-4.5q-.85-.3-1.825-.475T20.7 9.95q-1.05 0-2.15.175-1.1.175-2.05.575Zm.2 4.3-9.5-9.6q1.65-1.2 4.175-2T20.7 7q2.2 0 4.475.6 2.275.6 4.375 1.7Zm1.8 5.1Zm-2-9.4Z"/></svg>

<svg xmlns="http://www.w3.org/2000/svg" height="48" width="48"><path d="M30.7 43.65Q29.45 43.65 28.55 42.75Q27.65 41.85 27.65 40.6Q27.65 39.35 28.55 38.475Q29.45 37.6 30.7 37.6Q31.95 37.6 32.825 38.5Q33.7 39.4 33.7 40.6Q33.7 41.9 32.825 42.775Q31.95 43.65 30.7 43.65ZM12.95 43.65Q11.7 43.65 10.825 42.75Q9.95 41.85 9.95 40.6Q9.95 39.35 10.825 38.475Q11.7 37.6 12.95 37.6Q14.25 37.6 15.125 38.5Q16 39.4 16 40.6Q16 41.9 15.1 42.775Q14.2 43.65 12.95 43.65ZM16.7 31.6H28.25Q28.5 31.6 28.675 31.425Q28.85 31.25 28.85 31V17.3ZM14.25 34.55Q13.1 34.55 12.625 33.5Q12.15 32.45 12.9 31.55L31.75 9.5Q32.6 8.45 33.85 7.8Q35.1 7.15 36.45 7.15Q38.85 7.15 40.525 8.825Q42.2 10.5 42.2 12.95V14.3H39.3V12.95Q39.3 11.75 38.45 10.9Q37.6 10.05 36.45 10.05Q35.7 10.05 35.025 10.425Q34.35 10.8 33.8 11.55L31.75 13.85V31Q31.75 32.5 30.7 33.525Q29.65 34.55 28.25 34.55ZM20.75 18.6 11.8 9.65Q13.15 8.65 15.475 7.9Q17.8 7.15 20.45 7.15Q22.65 7.15 24.8 7.725Q26.95 8.3 28.7 9.3ZM20.6 14.55 24 10.5Q23.1 10.2 22.225 10.05Q21.35 9.9 20.45 9.9Q19.4 9.9 18.425 10.075Q17.45 10.25 16.65 10.65ZM22.75 24.45Q22.75 24.45 22.75 24.45Q22.75 24.45 22.75 24.45ZM20.6 14.55Q20.6 14.55 20.6 14.55Q20.6 14.55 20.6 14.55Q20.6 14.55 20.6 14.55Q20.6 14.55 20.6 14.55Z"/></svg>
